X: 7169
T: Çhyndaa Yn Bwoailley
R: polka
M: 2/4
K: Dmajor
A|AFAF A2 AF|AdAF A3A|AFGE FDDF|EDDC DEFG|
AFAF A2 AF|AdAA A3A|AFGE FDDF EDDC D3E|
ECEC E2 z2|FDFD F2 z2|GEG^G ADAA|BAGF E3A|
AFAF A2 AF|AdcB A3A|AFGE FDDF|EDDC D3||

